X:284
T:Prince George's March. (p)1687.PLFD.284
M:4/4
L:1/4
Q:1/2=80
S:Playford, Dancing Master,7th Ed,1st Supp,1687.
O:England
H:1687.
Z:Chris Partington
K:C
cc/d/ee/f/|ggge/f/|ggag/f/|e>^fgG|cc/d/ee/f/|
ggge/f/|gga/g/f/e/|dGd2:||:dd/e/ff|fc/d/ed/c/|ggc>c|
f>f f/e/d/c/|B/c/dBd|gf/e/aa/e/|f/d/g/e/d>c|c4:|
